X: 34
T:St. Anne's Reel
M:4/4
L:1/8
R:Reel
N:http://www.lesession.co.uk
Z:Steve Mansfield 1998-2001
K:D
de |: fedf edcB | A2 FA DAFA | B2 GB EBGB | A2 FA DAFA | 
fedf edcB | A2 FA DAFD | Bdgf edce | d2 f2 d4 :: 
f3 g fedc | Bggf g2 f2 | gfed cABc | daa^g abag | 
fefg fedc | Bggf g2 f2 | gfed cABc | d2 f2 d4 :|

